X:1
T:Title
%%score ( 1 2 ) { 3 | 4 }
L:1/8
Q:1/4=95
M:4/4
K:Ab
V:1 treble nm="Grand Piano, Soprano"
V:2 treble 
V:3 bass nm="Choir Pad, Bass"
V:4 bass 
V:1
 [A,C][B,D][CE][Ec] [Ec][Ec][Ec][CE] | [CF][CE][B,=D][DB] [DB][DB] [DB]2- | %2
w: By~Carl~Harold~Lowden * * * * * * *||
 [DB]2 [_Dc][DB]- [DB][DG][DF][DG]- | [DG][DF] E4- [DE]2 | [A,C][B,D][CE][Ec] [Ec][Ec][Ec][CE] | %5
w: |||
 [CF][CE][B,=D][DB] [DB][DB] [DB]2- | [DB]2 [Ac][Ac]- [Ac][Ac][A=d][Ad]- | [Ad][AB] e4 _d2- | %8
w: |||
 d2 [Ac][Ae]- [Ae]2 [EA][Ec]- | [Ec]E[=DF][DB]- [DB][DB] [DB]2- | %10
w: ||
 [DB]2 [_DG][DG] [DG][DA][DB][DB] | [Ec][DB][CA][Ae]- [Ae][Ge] e2- | %12
w: ||
 [Ee]2 [Ec][Ec] [Ec][Ec][Ee][Ee] | [EA][EG][DF][EG] [FA][FB] [=Ec]2- | %14
w: ||
 [Ec]2 [FB][Fc]- [Fc][Fd][Ae][Gc]- | [Gc][GB] [EA]6- | [EA]2 z2 z4 |] %17
w: |||
V:2
 x8 | x8 | x8 | z2 C4 z2 | x8 | x8 | x8 | z2 G6- | G2 z2 z4 | x8 | x8 | z4 z2 A2 | x8 | x8 | x8 | %15
 x8 | x8 |] %17
V:3
 E,E,A,A, A,A,A,A, | A,A,A,A, A,A, A,2- | A,2 G,G,- G,B,G,B,- | B,G, A,2 _G,2 =G,2 | %4
 E,E,A,A, A,A,A,A, | A,A,A,A, A,A, A,2- | A,2 B,B,- B,/ z/ B,[K:treble] FF- | F=D E6- | %8
 E2 EC- C2 C[K:bass]A,- | A,A,A,A,- A,A, A,2- | A,2 B,B, B,F,G,G, | F,G,A,[K:treble]C- CD E2 | %12
 D2 C[K:bass]A, A,A,CC | A,A,A,A, DF, G,2- | G,2 B,[K:treble]E- EDCE- | ED C6- | C2 z2 z4 |] %17
V:4
 A,,A,,A,,A,, A,,A,,A,,A,, | A,,A,,B,,B,, B,,B,, B,,2- | B,,2 E,E,- E,E,E,E,- | %3
 E,E, A,,2 =A,,2 B,,2 | z2 A,,A,, A,,A,,A,,A,, | A,,A,,B,,B,, B,,B,, B,,2- | B,,2 z2 z2 B,B,- | %7
 B,B, E,6- | E,2 A,A,- A,2 .A,2 | z C,B,,B,,- B,,B,, B,,2- | B,,2 E,E, E,E,E,E, | %11
 E,E,A,,A,- A,B, C2 | B,2 .A,2 z2 A,A, | C,C,D,D, D,D, C,2- | C,2 D,=A,,- A,,B,,E,E,- | %15
 E,E, [A,,A,]6- | [A,,A,]2 z2 z4 |] %17

